X:1
T:O Mistress Mine
M:3/4
L:1/8
K:C
 E2 EF G2| E2 AG
M:3/4
|G-F F2 DE| F3 DG F|F-E E2 CD| E3F/2-E/2 DD| C4 EF| G2 E2 AG|G-F F2 DE|\
 F3 DG F|F-E E2 CD| E3F/2-E/2 DD| C4 z2|
